packages/foundations/assets/icons/functional/images/layout/resize_24.svg

<svg width="24" height="24" viewBox="0 0 24 24" fill="none" xmlns="http://www.w3.org/2000/svg">
<g clip-path="url(#clip0_185_1505)">
<path fill-rule="evenodd" clip-rule="evenodd" d="M8 14C9.05436 14 10 14.8435 10 16V20C10 21.0544 9.18168 22 8 22H4C2.94564 22 2 21.1733 2 20V16C2 14.9456 2.85341 14 4 14H8ZM8 16H4V20H8V16ZM19.5 2C20.8255 2 22 3.07619 22 4.5V16.5C22 17.8255 20.9374 19 19.5 19H13C12.4477 19 12 18.5523 12 18C12 17.4872 12.4055 17 13 17H19.5C19.7275 17 20 16.8131 20 16.5V4.5C20 4.27473 19.8257 4 19.5 4H7.5C7.25454 4 7 4.20032 7 4.5V11C7 11.5523 6.55229 12 6 12C5.48716 12 5 11.5955 5 11V4.5C5 3.17452 6.07533 2 7.5 2H19.5ZM13 6H17C17.5847 6.00673 18 6.46482 18 7V11C18 11.5523 17.5523 12 17 12C16.4872 12 16 11.6171 16 11V9.414L12.7071 12.7071C12.3166 13.0976 11.6834 13.0976 11.2929 12.7071C10.9324 12.3466 10.8673 11.7063 11.2929 11.2929L14.584 8H13C12.4872 8 12 7.58391 12 7C12 6.41609 12.4843 6 13 6Z" fill="#1A1C1F"/>
</g>
<defs>
<clipPath id="clip0_185_1505">
<rect width="24" height="24" fill="white"/>
</clipPath>
</defs>
</svg>

<svg xmlns="http://www.w3.org/2000/svg" width="24" height="24" fill="none"><g clip-path="url(#a)"><path fill="#1A1C1F" fill-rule="evenodd" d="M8 14c1.054 0 2 .844 2 2v4c0 1.054-.818 2-2 2H4c-1.054 0-2-.827-2-2v-4c0-1.054.853-2 2-2zm0 2H4v4h4zM19.5 2C20.826 2 22 3.076 22 4.5v12c0 1.326-1.063 2.5-2.5 2.5H13a1 1 0 1 1 0-2h6.5c.227 0 .5-.187.5-.5v-12a.5.5 0 0 0-.5-.5h-12c-.245 0-.5.2-.5.5V11a1 1 0 1 1-2 0V4.5C5 3.175 6.075 2 7.5 2zM13 6h4a.994.994 0 0 1 1 1v4a1 1 0 0 1-1 1c-.513 0-1-.383-1-1V9.414l-3.293 3.293a1 1 0 0 1-1.414 0c-.36-.36-.426-1 0-1.414L14.584 8H13c-.513 0-1-.416-1-1s.484-1 1-1" clip-rule="evenodd"/></g><defs><clipPath id="a"><path fill="#fff" d="M0 0h24v24H0z"/></clipPath></defs></svg>
